X: 42
T: 42. Du Friedef\"urst, Herr Jesu Christ
N: Derived from chor042.krn
C: Johann Sebastian Bach
%%abc-version 2.0
%%abcx-abcm2ps-target-version 5.9.1 (29 Sep 2008)
%%abc-creator hum2abc beta
%%abcx-conversion-date 2019/03/11 17:28:17
%%abc-edited-by Craig Stuart Sapp
%%humdrum-veritas 3847039682
%%humdrum-veritas-data 2275768712
%%
%%barnumbers 0
L: 1/4
M: C
%%staves [1 2 3 4]
V: 1 clef=treble
V: 2 clef=treble
V: 3 clef=treble-8
V: 4 clef=bass
K: A
[V:1] c [I:setbarnb 1]| 
[V:2] A | 
[V:3] e | 
[V:4] A, | 
[V:1] ABce | 
[V:2] FGAB | 
[V:3] ddee | 
[V:4] D/C/B,A,G, | 
[V:1] dd!fermata!ce | 
[V:2] AB!fermata!AA | 
[V:3] fe!fermata!ee | 
[V:4] F,G,!fermata!A,C, | 
[V:1] dcBB | 
[V:2] AAAG | 
[V:3] fefe | 
[V:4] F,/G,/A,D,E, | 
[V:1] !fermata!c3 :|]  
[V:2] !fermata!A3 :|]  
[V:3] !fermata!e3 :|]  
[V:4] !fermata!A,,3 :|]  
[V:1] B [I:setbarnb 5]| 
[V:2] G | 
[V:3] e | 
[V:4] E,/F,/ | 
[V:1] BBcB | 
[V:2] EGAG | 
[V:3] Beee/d/ | 
[V:4] G,E,A,E, | 
[V:1] AB!fermata!GG | 
[V:2] FG!fermata!^EE | 
[V:3] cd!fermata!cc | 
[V:4] F,B,,!fermata!C,C, | 
[V:1] ABcB/c/ | 
[V:2] FGAE | 
[V:3] c=ee2 | 
[V:4] F,E,A,G, | 
[V:1] dcB2 | 
[V:2] AAAG | 
[V:3] defe/d/ | 
[V:4] F,E,D,E, | 
[V:1] !fermata!A3 |]  
[V:2] !fermata!E3 |]  
[V:3] !fermata!c3 |]  
[V:4] !fermata!A,,3 |]  



